!!!OTL: Das Ringelein.
!!!OTL-incipit: BALD GRAS ICH AM NECKAR
!!!ARE: Europa, Mitteleuropa, Deutschland, Schwaben
!!!SCT: Z1200
!!!YEM: Copyright 1995, estate of Helmut Schaffrath.
**kern	**text
*ICvox	*
*M3/4	*
*k[f#]	*
*G:	*
!LO:TX:a:t=Aus Schwaben.	!
{8b/L	Bald
8ccJ	.
=1	=1
4b/	graf'
4a	ich
4a	am
=2	=2
4g	Nek-
4b/}	-kar,
{4b/	bald
=3	=3
4dd/	graſ
4a	ich
4a	am
=4	=4
2dd/}	Rhein,
{8b/L	bald
8ccJ	.
=5	=5
4b/	hab'
4a	ich
4a	e
=6	=6
4g	Schätʒel,
4b/}	.
{4b/	bald
=7	=7
4dd/	bin
4a	ich
8aL	al-
8bJ	.
=8	=8
2g}	-lein.
==	==
!!!AGN: Liebes - Lied, verlassene Liebe; Tanz - Lied, Schnadahuepfel
!!!ONB: ESAC (Essen Associative Code) Database: ZUCCAL
!!!AMT: simple triple
!!!AIN: vox
!!!EED: Helmut Schaffrath
!!!EEV: 1.0
!!!GTL: V. Lieder der Minne.
!!!URL-scan: https://www.digitale-sammlungen.de/de/view/bsb11160573?page=405
!!!ENC: Anna Maria Matuszewska
!!!EEV: 2025/02/05
*-	*-
